img/icon_1.svg

<svg fill="none" height="80" viewBox="0 0 80 80" width="80" xmlns="http://www.w3.org/2000/svg" xmlns:xlink="http://www.w3.org/1999/xlink"><mask id="a" height="48" maskUnits="userSpaceOnUse" width="48" x="16" y="16"><path d="m64 16h-48v48h48z" fill="#fff"/></mask><mask id="b" height="36" maskUnits="userSpaceOnUse" width="36" x="22" y="22"><path d="m22 22h36v36h-36z" fill="#fff"/></mask><mask id="c" height="142" maskUnits="userSpaceOnUse" width="142" x="17" y="-79"><path d="m17.8948-78.2378h140.6252v140.625h-140.6252z" fill="#fff"/></mask><path d="m0 24c0-13.2548 10.7452-24 24-24h32c13.2548 0 24 10.7452 24 24v32c0 13.2548-10.7452 24-24 24h-32c-13.2548 0-24-10.7452-24-24z" fill="#222425"/><g mask="url(#a)"><g mask="url(#b)"><g mask="url(#c)" stroke="#5ea7ff" stroke-width=".773438"><path d="m6.32581 38.8628 164.00919.04"/><path d="m6.32581 50.6148 164.00919.0401"/><path d="m6.32581 27.1305 164.00919.04"/><path d="m6.32581 42.78 164.00919.0401"/><path d="m6.32581 54.5324 164.00919.0401"/><path d="m6.32581 31.0481 164.00919.04"/><path d="m6.32581 46.6975 164.00919.04"/><path d="m6.32581 23.2131 164.00919.0401"/><path d="m6.32581 34.9653 164.00919.0401"/><path d="m45.1403-89.1362v162.4218"/><path d="m33.3881-89.1362v162.4218"/><path d="m56.8724-89.1362v162.4218"/><path d="m41.2229-89.1362v162.4218"/><path d="m29.4707-89.1362v162.4218"/><path d="m52.9551-89.1362v162.4218"/><path d="m37.3054-89.1362v162.4218"/><path d="m25.5532-89.1362v162.4218"/><path d="m49.0376-89.1362v162.4218"/><path d="m21.6357-89.1362v162.4218"/></g></g><g stroke-linecap="round" stroke-linejoin="round"><path d="m23.1224 51.1934c2.9199-3.896 6.3607-8.4872 6.3607-8.4872l9.2886 5.9993 13.4972-20.9964s2.5884 2.3632 4.3442 3.9664" stroke="#cc2d00" stroke-width="6.5625"/><path d="m23.1224 51.1934c2.9199-3.896 6.3607-8.4872 6.3607-8.4872l9.2886 5.9993 13.4972-20.9964s2.5884 2.3632 4.3442 3.9664" stroke="#ff7954" stroke-width="2.8125"/></g></g></svg>

<svg width="80" height="80" viewBox="0 0 80 80" fill="none" xmlns="http://www.w3.org/2000/svg">
<path d="M0 24C0 10.7452 10.7452 0 24 0H56C69.2548 0 80 10.7452 80 24V56C80 69.2548 69.2548 80 56 80H24C10.7452 80 0 69.2548 0 56V24Z" fill="#222425"/>
<mask id="mask0_1_1051" style="mask-type:luminance" maskUnits="userSpaceOnUse" x="16" y="16" width="48" height="48">
<path d="M64 16H16V64H64V16Z" fill="white"/>
</mask>
<g mask="url(#mask0_1_1051)">
<mask id="mask1_1_1051" style="mask-type:luminance" maskUnits="userSpaceOnUse" x="22" y="22" width="36" height="36">
<path d="M22 22H58V58H22V22Z" fill="white"/>
</mask>
<g mask="url(#mask1_1_1051)">
<mask id="mask2_1_1051" style="mask-type:luminance" maskUnits="userSpaceOnUse" x="17" y="-79" width="142" height="142">
<path d="M17.8948 -78.2378H158.52V62.3872H17.8948V-78.2378Z" fill="white"/>
</mask>
<g mask="url(#mask2_1_1051)">
<path d="M6.32581 38.8628L170.335 38.9028" stroke="#5EA7FF" stroke-width="0.773438"/>
<path d="M6.32581 50.6148L170.335 50.6549" stroke="#5EA7FF" stroke-width="0.773438"/>
<path d="M6.32581 27.1305L170.335 27.1705" stroke="#5EA7FF" stroke-width="0.773438"/>
<path d="M6.32581 42.78L170.335 42.8201" stroke="#5EA7FF" stroke-width="0.773438"/>
<path d="M6.32581 54.5324L170.335 54.5725" stroke="#5EA7FF" stroke-width="0.773438"/>
<path d="M6.32581 31.0481L170.335 31.0881" stroke="#5EA7FF" stroke-width="0.773438"/>
<path d="M6.32581 46.6975L170.335 46.7375" stroke="#5EA7FF" stroke-width="0.773438"/>
<path d="M6.32581 23.2131L170.335 23.2532" stroke="#5EA7FF" stroke-width="0.773438"/>
<path d="M6.32581 34.9653L170.335 35.0054" stroke="#5EA7FF" stroke-width="0.773438"/>
<path d="M45.1403 -89.1362V73.2856" stroke="#5EA7FF" stroke-width="0.773438"/>
<path d="M33.3881 -89.1362V73.2856" stroke="#5EA7FF" stroke-width="0.773438"/>
<path d="M56.8724 -89.1362V73.2856" stroke="#5EA7FF" stroke-width="0.773438"/>
<path d="M41.2229 -89.1362V73.2856" stroke="#5EA7FF" stroke-width="0.773438"/>
<path d="M29.4707 -89.1362V73.2856" stroke="#5EA7FF" stroke-width="0.773438"/>
<path d="M52.9551 -89.1362V73.2856" stroke="#5EA7FF" stroke-width="0.773438"/>
<path d="M37.3054 -89.1362V73.2856" stroke="#5EA7FF" stroke-width="0.773438"/>
<path d="M25.5532 -89.1362V73.2856" stroke="#5EA7FF" stroke-width="0.773438"/>
<path d="M49.0376 -89.1362V73.2856" stroke="#5EA7FF" stroke-width="0.773438"/>
<path d="M21.6357 -89.1362V73.2856" stroke="#5EA7FF" stroke-width="0.773438"/>
</g>
</g>
<path d="M23.1224 51.1934C26.0423 47.2974 29.4831 42.7062 29.4831 42.7062L38.7717 48.7055L52.2689 27.7091C52.2689 27.7091 54.8573 30.0723 56.6131 31.6755" stroke="#CC2D00" stroke-width="6.5625" stroke-linecap="round" stroke-linejoin="round"/>
<path d="M23.1224 51.1934C26.0423 47.2974 29.4831 42.7062 29.4831 42.7062L38.7717 48.7055L52.2689 27.7091C52.2689 27.7091 54.8573 30.0723 56.6131 31.6755" stroke="#FF7954" stroke-width="2.8125" stroke-linecap="round" stroke-linejoin="round"/>
</g>
</svg>
